!!!COM: Bach, Johann Sebastian
!!!OPR: Joh. Seb. Bachs vierstimmige Choralges‰nge
!!!XEN: Four-part Chorales
!!!OTL: 179. Wenn wir in hˆchsten Nˆten sein
!!!SCT: BWV 432
!!!SCA: Thematisch-systematisches Verzeichnis der musikalischen Werke Johann Sebastian Bach: Bach-Werke-Verzeichnis (Schmieder)
!!!YOR: Bach Gesellschaft Edition xxxix
!!!ENC: Steven Rasmussen
!!!CDT: 1685/3//-1750/7/28/
!!!OCY: Deutschland
!!!YEC: Copyright (c) 1994, 2000 Center for Computer Assisted Research in the Humanities
!!!YEM: Rights to all derivative editions reserved
!!!YEN: United States of America
**kern	**silbe	**kern	**kern	**kern
*I:[SOPRANO]	*I:[SOPRANO]	*I:[ALTO]	*I:[TENORE]	*I:[BASSO]
*>[A,A]	*	*>[A,A]	*>[A,A]	*>[A,A]
*>A	*	*>A	*>A	*>A
*clefG2	*	*clefG2	*clefGv2	*clefF4
*k[f#]	*	*k[f#]	*k[f#]	*k[f#]
*G:	*	*G:	*G:	*G:
*M4/4	*	*M4/4	*M4/4	*M4/4
4g	Wennso	4d	4B	8GL
.	.	.	.	8F#J
=1	=1	=1	=1	=1
4g	wirist	4.e	4B	8EL
.	.	.	.	8DJ
4a	indas	.	8AL	8CL
.	.	8d	8F#J	8DJ
4b	h√∂ch-un-	8dL	4G	4GG
.	.	8eJ	.	.
8aL	-sten-ser	4f#	4A	4D
8bJ	.	.	.	.
=2	=2	=2	=2	=2
8ccL	N√∂-Trost	8eL	8AL	8AAL
8bJ	.	16gL	8dJ	8BBJ
.	.	16f#JJ	.	.
4a	-tenal-	8eL	8cL	8CL
.	.	8f#J	16BL	8DJ
.	.	.	16AJJ	.
4g;	sein-lein,	4d;	4B;	4GG;
4b	unddass	4g	4d	8GL
.	.	.	.	8F#J
=3	=3	=3	=3	=3
4cc	wis-wir	8gL	8eL	4E
.	.	8aJ	8d#J	.
4b	-senzu-	8aL	8d#L	4E
.	.	8gJ	8eJ	.
4a	nicht,-sam-	8f#L	4c	4E
.	.	16eL	.	.
.	.	16d#JJ	.	.
4g	wo-men	4e	4B	8EL
.	.	.	.	8DJ
=4	=4	=4	=4	=4
8f#L	ausins-	4d	4A	8CL
8gJ	.	.	.	8BBJ
8.gTL	und-ge-	4d	4B	8AAL
.	.	.	.	8GGJ
32f#LL	.	.	.	.
32gJJJ	.	.	.	.
4a;	ein,-mein	4d;	4F#;	4D;
4dd	unddich	4f#	8BL	4BB
.	.	.	8AJ	.
=5	=5	=5	=5	=5
4cc	fin-an-	4e	8GL	8EL
.	.	.	8AJ	8F#J
4b	-den-ru-	8dL	4B	4.G
.	.	16c#L	.	.
.	.	16dJJ	.	.
4a	we--fen,	8eL	4c#	.
.	.	16f#L	.	8F#L
.	.	16eJJ	.	.
8gL	-derdu	4d	4B	8BJ
8f#J	.	.	.	8A
=6	=6	=6	=6	=6
8.eL	H√ºlf'treu-	4d	8BL	8GL
.	.	.	8GJ	8EJ
32f#LL	.	.	.	.
32gJJJ	.	.	.	.
4e	noch-er	4c#	4A	4A
4d;	Rat,Gott,	4d;	4F#;	4D;
4b	obum	4f#	4F#	4D#
=7	=7	=7	=7	=7
4cc	wirRet-	4e	8GL	8EL
.	.	.	8AJ	8F#J
4b	gleich-tung	4d	4B	4G
4a	sor-aus	8eL	(8E	8C#L
.	.	8f#J	4B)	8D#J
8gL	-gender	4g	.	8EL
8aJ	.	.	8c	16DnL
.	.	.	.	16CnJJ
=8	=8	=8	=8	=8
4b	fr√ºhAngst	4g	4d	8BBL
.	.	.	.	8CJ
4a	undund	4f#	16cLL	4D
.	.	.	16BJ	.
.	.	.	8cJ	.
4g;	spat,Not.	4d;	4B;	4GG;
==:|!	==:|!	==:|!	==:|!	==:|!
*-	*-	*-	*-	*-
!!!RWG: Key is interpreted using the Humdrum key tool.
!!!END: 1994/08/08
!!!EMD: Converted from MuseData to Humdrum Dec 19, 2000, by Andreas Kornstaedt using muse2kern.
!!!EED: Craig Stuart Sapp
!!!EEV: 2024/03/31
!!!ONB: Some non-unicode characters
